X:1
T:Title
%%score { ( 1 4 ) | ( 2 3 ) }
L:1/8
Q:1/4=100
M:4/4
K:F
V:1 treble nm="Grand Piano"
V:4 treble 
V:2 bass 
V:3 bass 
V:1
 A4 BAGF | c2 d2 c2 B2 | A c2 c dcBA |[M:3/4] [EG]2 [FA]2 [GB]2 |[M:1/4] [Ec]2 |[M:4/4] A3 A BAGF | %6
w: James~McGranahan * * * *||||||
 c2 d2 c2 B2 | A[_Ec][Dc][DB] A2 G2 | F6 z2 | d4[K:bass][K:treble] z4 | c4 z4 | %11
w: |||||
 [GB][Ac][GB][FA] .[G,EG]2 [Bd]2 |[M:3/4] [Ac]2 [GB]2 A2 |[M:1/4] c2 |[M:4/4] d4 z4 | c4 z4 | %16
w: |||||
 [CGB][CEG][EGc][DFB] [CEA]2 [B,EG]2 | [A,F]6 z2 |] %18
w: ||
V:2
 [F,CF]4 [F,DF][F,CF][F,B,C][F,A,C] | [F,A,F]2 [B,F]2 [A,CF]2 [G,CE]2 | %2
 C[K:bass] A,2 [F,A,F] B,A,DC |[M:3/4] [C,C]2 [C,C]2 [C,C]2 |[M:1/4] [C,C]2 | %5
[M:4/4] [F,CF]3 [F,CF] DC[F,C]-[F,A,C] | [F,A,F]2 [B,F]2 [A,CF]2[K:bass] [G,CE]2 | %7
 [F,C_E][A,,F,][B,,F,][B,,F,] [C,F,C]2 [C,B,C]2 | [F,A,C]6 z2 | [B,F]4 B,,2 .[B,,B,]2 | %10
 [A,F]4 [F,CF]2[K:bass] .[F,A,F]2 | [C,E,][C,E,][C,E,][C,F,] z C [C,C]2 | %12
[M:3/4] [F,C]2 [F,C]2[K:treble] [F,CF]2 |[M:1/4] A2 |[M:4/4] B4 z4 | A4[K:bass] z4 | %16
 C,C,C,C, C,2 C,2 | F,6 z2 |] %18
V:3
 x8 | x8 | [F,F]4[K:bass] [F,F]2 [F,F]2 |[M:3/4] x6 |[M:1/4] x2 |[M:4/4] z4 [F,F]2 .B,2 | %6
 x6[K:bass] x2 | x8 | x8 | x8 | x6[K:bass] x2 | z4 C,2 z2 |[M:3/4] x4[K:treble] x2 |[M:1/4] x2 | %14
[M:4/4] z2 B,[B,FB] [B,DF]2 .[B,FB]2 | z2[K:bass] F,F, F,2 .F,2 | x8 | x8 |] %18
V:4
 x8 | x8 | x8 |[M:3/4] x6 |[M:1/4] x2 |[M:4/4] x8 | x8 | x8 | x8 | %9
 z2[K:bass] B,,2[K:treble] [DFB]2 .[Fd]2 | z2 F,2 A2 .c2 | x8 |[M:3/4] x6 |[M:1/4] x2 | %14
[M:4/4] z2 Fd B2 .d2 | z2 F[FAc] [CFA]2 .[CAc]2 | x8 | x8 |] %18

